X:1
T:Title
%%score { ( 1 4 ) | ( 2 3 ) }
L:1/8
Q:1/4=108
M:4/4
K:Bb
V:1 treble nm="Grand Piano"
V:4 treble 
V:2 bass 
V:3 bass 
V:1
 [B,DF]2 [F,DF]2 [B,DF]2 [F,DF]2 | .[B,EG]2 [DB]2 [B,DB]2 [DF]2 | [CFA]2 [CFA]2 [CFA]2 [=Ec]B | %3
w: W.~A.~Ogden * * *|||
 [CFA]2 [B,=EG]2 [A,F]4 | [B,DF]2 [F,DF]2 [B,DF]2 [F,DF]2 | .[B,EG]2 [DB]2 [DB]2 [Fd]2 | %6
w: |||
 [Fc]3 [Fd] [Fc]2 z G | [CFA]2 [B,=EG]2 F4 | ed c2 d2 d2 | c2 c2 A2 F2 | ed c2 d2 d2 | c2 =B2 c4 | %12
w: ||||||
 [Fd]3 [Fd] [Fd]2 [Ec]2 | [DB]2 [DF]2 GA [B,FB]2 | c2 d2 [Ge]2 [Fd]c | B2 A2 [DB]4 |] %16
w: ||||
V:2
 B,,2 B,,2 B,,2 B,,2 | z A [B,,F,]2 B,,2 B,,2 | F,2 C,2 F,2 z G | F,2 C,2 z2 E2 | %4
 B,,2 B,,2 B,,2 B,,2 | z A [B,,F,]2 [B,,B,]2 [B,,B,]2 | [C,A,]3 [C,B,] [C,A,]2 A,B, | %7
 C,2 C,2 [F,A,]4 | .C2 z2 z4 | [F,A,F]2 [F,A,F]2 [F,CF]2 [F,A,]2 | .C2 z2 z4 | %11
 [F,A,F]2 [F,_A,F]2 [F,=A,F]4 | [B,,B,]3 [B,,B,] [B,,B,]2 [B,,F,]2 | z4 .B,2 z2 | %14
 [F,A,F]2 [B,F]2[K:bass] [E,B,]2 E,-[E,EG] | [F,DF]2 [F,CE]2 [B,,B,]4 |] %16
V:3
 x8 | B,,2 z2 z4 | z4 z2 [C,C]2 | z4 F,4 | x8 | B,,2 z2 z4 | z4 z2 C,2 | x8 | %8
 [F,F]-[F,B,F] [F,A,F]2 [F,B,F]2 [F,B,F]2 | x8 | [F,F]-[F,B,F] [F,A,F]2 [F,B,F]2 [F,B,F]2 | x8 | %12
 x8 | [B,,F,]2 [B,,B,]2 [E,E]-[E,CE] D,2 | z4[K:bass] z2 .B,2 | x8 |] %16
V:4
 x8 | x8 | x8 | x8 | x8 | x8 | z4 z2 F2 | x8 | x8 | x8 | x8 | x8 | x8 | x8 | x8 | x8 |] %16

